packages/sources/icons/src/vitamix/train-line.svg

<svg width="16" height="16" viewBox="0 0 16 16" xmlns="http://www.w3.org/2000/svg"><path d="M11.4667 13.3333L12.6667 14.3333V14.6667H3.33333V14.3333L4.53333 13.3333H3.33333C2.97971 13.3333 2.64057 13.1929 2.39052 12.9428C2.14048 12.6928 2 12.3536 2 12V4.66667C2 3.95942 2.28095 3.28115 2.78105 2.78105C3.28115 2.28095 3.95942 2 4.66667 2H11.3333C12.0406 2 12.7189 2.28095 13.219 2.78105C13.719 3.28115 14 3.95942 14 4.66667V12C14 12.3536 13.8595 12.6928 13.6095 12.9428C13.3594 13.1929 13.0203 13.3333 12.6667 13.3333H11.4667ZM4.66667 3.33333C4.31304 3.33333 3.97391 3.47381 3.72386 3.72386C3.47381 3.97391 3.33333 4.31305 3.33333 4.66667V12H12.6667V4.66667C12.6667 4.31305 12.5262 3.97391 12.2761 3.72386C12.0261 3.47381 11.687 3.33333 11.3333 3.33333H4.66667ZM8 11.3333C7.64638 11.3333 7.30724 11.1929 7.05719 10.9428C6.80714 10.6928 6.66667 10.3536 6.66667 10C6.66667 9.64638 6.80714 9.30724 7.05719 9.05719C7.30724 8.80714 7.64638 8.66667 8 8.66667C8.35362 8.66667 8.69276 8.80714 8.94281 9.05719C9.19286 9.30724 9.33333 9.64638 9.33333 10C9.33333 10.3536 9.19286 10.6928 8.94281 10.9428C8.69276 11.1929 8.35362 11.3333 8 11.3333ZM4 4.66667H12V7.33333H4V4.66667Z"/></svg>

<svg width="16" height="16" xmlns="http://www.w3.org/2000/svg"><path d="m11.467 13.333 1.2 1v.334H3.333v-.334l1.2-1h-1.2A1.333 1.333 0 0 1 2 12V4.667A2.667 2.667 0 0 1 4.667 2h6.666A2.667 2.667 0 0 1 14 4.667V12a1.333 1.333 0 0 1-1.333 1.333h-1.2Zm-6.8-10a1.333 1.333 0 0 0-1.334 1.334V12h9.334V4.667a1.333 1.333 0 0 0-1.334-1.334H4.667Zm3.333 8a1.333 1.333 0 1 1 0-2.666 1.333 1.333 0 0 1 0 2.666ZM4 4.667h8v2.666H4V4.667Z"/></svg>
